X: 53
M: 6/8
L: 1/8
K: G
|:\
|:\
g3 def | gfe dcB | (g/f/e/f/g) de=f | A=FA (c2A) |\
g3 def | gfe dcB | cgc BgB | A=FA (c2A) :|
|:\
|:\
gdB gdB | GAB (d2B) | gdB gdB | A=FA (c2A) |\
gdB gdB | GAB gdB | cgc BgB | A=FA (c2A) :|


